src/cmd/32/insertrows.svg

<svg viewBox="0 0 32 32" xmlns="http://www.w3.org/2000/svg"><path d="m4 4v1 2.7324219 1.5351562 2.7324219 1h10 1 13v-1-7-1h-13-1zm1 1h1.3417969l-1.3417969 1.5664062zm2.6582031 0h2.6835939l-5.341797 6.232422v-3.1308595l2.3808594-2.7773437zm3.9999999 0h2.341797.341797l-.341797.3984375-5.3789062 6.2753905-.28125.326172h-2.6816407l5.7226559-6.6757812zm4 0h2.683594l-3.341797 3.8984375-1 1.1660155-1.378906 1.609375-.28125.326172h-2.6816409l4.3417969-5.0644531 1-1.1660157.380859-.4453124zm4 0h2.683594l-5.720703 6.673828-.28125.326172h-1.339844-1-.341797l.341797-.398438.115234-.134765.884766-1.03125 4.380859-5.1113282zm4 0h2.683594l-5.720703 6.673828-.28125.326172h-2.681641l5.722656-6.6757812zm3.341797.7695312v3.1289063l-2.378906 2.7753905-.28125.326172h-2.681641zm0 4.6660158v1.564453h-1.341797z" fill="#762572"/><path d="m4 13v15h15v-1h-2v-7h2v-1h-2v-6h-1v6h-3v-6h-1v6h-3v-6h-1v6h-3v-6zm16 0v5h1v-5zm4 0v5h1v-5zm3 0v5h1v-5zm-4 6v4h-4v1h4v4h1v-4h4v-1h-4v-4zm-18 1h3v7h-3zm4 0h3v7h-3zm4 0h3v7h-3z" fill="#232629"/></svg>

<?xml version="1.0" encoding="UTF-8" standalone="no"?>
<svg
   xmlns:dc="http://purl.org/dc/elements/1.1/"
   xmlns:cc="http://creativecommons.org/ns#"
   xmlns:rdf="http://www.w3.org/1999/02/22-rdf-syntax-ns#"
   xmlns:svg="http://www.w3.org/2000/svg"
   xmlns="http://www.w3.org/2000/svg"
   xmlns:sodipodi="http://sodipodi.sourceforge.net/DTD/sodipodi-0.dtd"
   xmlns:inkscape="http://www.inkscape.org/namespaces/inkscape"
   viewBox="0 0 32 32"
   version="1.1"
   id="svg6"
   sodipodi:docname="insertrows.svg"
   inkscape:version="0.92.4 (5da689c313, 2019-01-14)">
  <metadata
     id="metadata12">
    <rdf:RDF>
      <cc:Work
         rdf:about="">
        <dc:format>image/svg+xml</dc:format>
        <dc:type
           rdf:resource="http://purl.org/dc/dcmitype/StillImage" />
      </cc:Work>
    </rdf:RDF>
  </metadata>
  <defs
     id="defs10" />
  <sodipodi:namedview
     pagecolor="#ffffff"
     bordercolor="#666666"
     borderopacity="1"
     objecttolerance="10"
     gridtolerance="10"
     guidetolerance="10"
     inkscape:pageopacity="0"
     inkscape:pageshadow="2"
     inkscape:window-width="1920"
     inkscape:window-height="1011"
     id="namedview8"
     showgrid="true"
     inkscape:zoom="11.313709"
     inkscape:cx="33.064529"
     inkscape:cy="20.351192"
     inkscape:window-x="1920"
     inkscape:window-y="32"
     inkscape:window-maximized="1"
     inkscape:current-layer="svg6">
    <inkscape:grid
       type="xygrid"
       id="grid822" />
  </sodipodi:namedview>
  <path
     d="M 7,4 C 5,4 4,4 4,6 V 7.7324219 9.2675781 12 13 h 10 1 13 V 12 6 C 28,4 27,4 25,4 H 15 14 Z M 6.3417969,5 5,6.5664062 V 6 C 5,5 6,5 6.3417969,5 Z M 7.6582031,5 H 10.341797 L 5,11.232422 V 8.1015625 L 7.3808594,5.3242188 Z M 11.658203,5 H 14 14.341797 L 14,5.3984375 8.6210938,11.673828 8.3398438,12 H 5.6582031 L 11.380859,5.3242188 Z m 4,0 h 2.683594 L 15,8.8984375 14,10.064453 12.621094,11.673828 12.339844,12 H 9.6582031 L 14,6.9355469 15,5.7695312 15.380859,5.3242188 Z m 4,0 h 2.683594 L 16.621094,11.673828 16.339844,12 H 15 14 13.658203 L 14,11.601562 14.115234,11.466797 15,10.435547 19.380859,5.3242188 Z m 4,0 h 2.683594 L 20.621094,11.673828 20.339844,12 H 17.658203 L 23.380859,5.3242188 Z M 27,5.7695312 V 8.8984375 L 24.621094,11.673828 24.339844,12 h -2.681641 z m 0,4.6660158 V 12 h -1.341797 z"
     id="path2"
     inkscape:connector-curvature="0"
     style="fill:#762572"
     sodipodi:nodetypes="cccccccccccccccccccccccccccccccccccccccccccccccccccccccccccccccccccccccccc" />
  <path
     d="m 4,13 v 13 c 0,2 1,2 3,2 h 12 v -1 h -2 v -7 h 2 v -1 h -2 v -6 h -1 v 6 h -3 v -6 h -1 v 6 H 9 V 13 H 8 v 6 H 5 v -6 z m 16,0 v 5 h 1 v -5 z m 4,0 v 5 h 1 v -5 z m 3,0 v 5 h 1 v -5 z m -4,6 v 4 h -4 v 1 h 4 v 4 h 1 v -4 h 4 V 23 H 24 V 19 Z M 5,20 h 3 v 7 H 7 C 6,27 5,27 5,26 Z m 4,0 h 3 v 7 H 9 Z m 4,0 h 3 v 7 h -3 z"
     id="path4"
     inkscape:connector-curvature="0"
     style="fill:#232629"
     sodipodi:nodetypes="cccccccccccccccccccccccccccccccccccccccccccccccccccccccccccccccccccc" />
</svg>
